builds/development/lbd/img/teamwork.svg

<?xml version="1.0" encoding="UTF-8"?>
<svg width="48px" height="46px" viewBox="0 0 48 46" version="1.1" xmlns="http://www.w3.org/2000/svg" xmlns:xlink="http://www.w3.org/1999/xlink">
    <!-- Generator: Sketch 50.2 (55047) - http://www.bohemiancoding.com/sketch -->
    <title>Icon</title>
    <desc>Created with Sketch.</desc>
    <defs></defs>
    <g id="HP---Desktop" stroke="none" stroke-width="1" fill="none" fill-rule="evenodd">
        <g id="Desktop---Not-logged" transform="translate(-901.000000, -1526.000000)" fill="#00BCDC" fill-rule="nonzero">
            <g id="Key-points" transform="translate(81.000000, 1364.000000)">
                <g id="Card-3" transform="translate(689.000000, 130.000000)">
                    <g id="Icon" transform="translate(131.000000, 32.000000)">
                        <path d="M27.7849833,25.3692057 C27.4836805,25.5682404 26.6299892,26.0160684 25.6256464,26.6131725 C24.8723894,25.4189643 23.8680466,24.2745148 22.6126182,24.0754801 C20.9554527,23.7769281 18.8965501,24.4237909 17.1389503,24.9711363 C17.1389503,24.9711363 15.4315676,25.468723 14.828962,25.617999 C13.5735336,25.9663097 12.4185394,26.2648618 11.4644138,26.6629312 C9.60637973,27.45907 6.19161442,30.6933838 4.18292894,33.1813175 C3.53010616,34.0272149 2.375112,35.6692512 1.37076926,37.1620114 C0.969032168,37.7093568 0.667729346,38.2069435 0.366426524,38.6050129 C-0.286396257,39.5006691 -0.0353105723,40.7446359 0.868597894,41.3914987 L6.89465433,45.620986 C7.34660857,45.919538 7.89899707,46.068814 8.45138558,45.9692967 C8.50160272,45.9692967 8.55181986,45.9692967 8.55181986,45.919538 C9.05399123,45.770262 9.45572832,45.4717099 9.75703114,45.0736405 L11.7154995,41.9886028 C14.6280934,42.0383614 17.7415559,41.6900507 19.7502414,41.192464 C19.7502414,41.192464 19.8004585,41.192464 19.8004585,41.192464 C22.7632696,40.3963252 27.1823777,37.2117701 32.806697,31.7383159 C34.262994,30.2953144 34.4136454,28.0561741 33.1079999,26.3643791 C32.05344,24.9213776 29.9945374,24.0754801 27.7849833,25.3692057 Z M7.84877994,42.9837762 L2.97771765,39.5504277 C3.1785862,39.3016344 3.37945474,38.9533236 3.58032329,38.6547716 C3.78119184,38.3562196 4.03227753,38.0079088 4.28336321,37.6595981 L9.05399123,41.0431879 L7.84877994,42.9837762 Z M30.948663,29.7977276 C24.3200009,36.2165966 20.8550184,38.1074262 19.1476358,38.5552543 C19.1476358,38.5552543 19.0974186,38.5552543 19.0974186,38.5552543 C17.2896017,39.0030823 14.4272249,39.3016344 11.7154995,39.2518757 C11.5648481,39.2518757 11.4644138,39.2518757 11.3137624,39.3016344 L5.84009446,35.4204578 C5.99074587,35.2214231 6.14139728,35.0223884 6.29204869,34.8731124 C8.35095131,32.33542 11.3639795,29.6484516 12.5189737,29.1508649 C13.2722307,28.8025542 14.3770077,28.5537608 15.5320019,28.2054501 C16.1848247,28.0561741 17.9424245,27.5088286 17.9424245,27.5088286 C19.3485043,27.0610006 21.1563212,26.5634138 22.160664,26.7126899 C22.3615325,26.7624485 22.7632696,27.2102766 23.2152239,27.906898 C22.4117497,28.3547261 21.6584926,28.8025542 21.2065384,29.0513475 C20.3528471,29.4991756 18.143293,30.1460384 16.3354761,30.5441077 L15.9839561,30.5938664 C15.2306991,30.7431424 14.7787448,31.4895226 14.9293963,32.186144 C15.0800477,32.9325241 15.8333047,33.3803522 16.5363446,33.2310761 L16.8878646,33.1813175 C18.6956815,32.7832481 21.2567555,32.036868 22.4619668,31.4397639 C22.4619668,31.4397639 22.4619668,31.4397639 22.4619668,31.4397639 C24.370218,30.4445904 25.6758636,29.6484516 25.7260807,29.6484516 C25.7260807,29.6484516 28.7893261,27.8571394 29.140846,27.7078633 C30.0949716,27.1605179 30.6975773,27.6581047 30.948663,27.9566567 C31.3504001,28.4542434 31.5010515,29.2503822 30.948663,29.7977276 Z" id="Shape"></path>
                        <path d="M47.1410263,4.61894828 L41.1132194,0.37987323 C40.6611339,0.0806444029 40.1085849,-0.0689700105 39.5560359,0.0307729318 C39.5058042,0.0307729318 39.4555725,0.0307729318 39.4555725,0.0806444029 C38.9532552,0.230258816 38.5514015,0.529487643 38.2500111,0.928459412 L36.2909739,4.02049062 C33.3775338,3.97061915 30.2631669,4.31971945 28.253898,4.81843416 C28.253898,4.81843416 28.2036662,4.81843416 28.2036662,4.81843416 C25.2399945,5.6163777 20.8196027,8.80815185 15.1936496,14.2940137 C13.7369296,15.7402863 13.5862344,17.9845025 14.8922593,19.6801326 C15.9973572,21.0765337 18.0568579,21.9243488 20.2670538,20.6276905 C20.5684441,20.4282046 21.4223834,19.9793614 22.4270179,19.3809037 C23.1804938,20.577819 24.1851283,21.7248629 25.4409214,21.9243488 C27.0985683,22.2235776 29.158069,21.5752485 30.9161793,21.0266623 C30.9161793,21.0266623 32.624058,20.5279476 33.2268387,20.3783332 C34.4826318,20.0292329 35.6379614,19.730004 36.5923642,19.3310323 C38.450938,18.5330887 41.8666953,15.2914431 43.8759642,12.7978695 C44.5289767,11.9500545 45.6843063,10.304296 46.6889408,8.80815185 C47.0907946,8.25956567 47.3921849,7.76085096 47.6935753,7.36187919 C48.2461243,6.51406418 48.0451974,5.2672774 47.1410263,4.61894828 Z M41.6657684,11.1022395 C39.6062677,13.6456846 36.5923642,16.338744 35.4370345,16.8374587 C34.6835587,17.186559 33.5784607,17.4359164 32.4231311,17.7850167 C31.7701187,17.9346311 30.0120083,18.4832173 30.0120083,18.4832173 C28.60552,18.9320605 26.7971779,19.4307752 25.7925435,19.2811608 C25.5916166,19.2312893 25.1897628,18.7824461 24.7376772,18.0842455 C25.5413848,17.6354022 26.2948607,17.186559 26.7469462,16.9372016 C27.6008855,16.4883584 29.8110814,15.8400293 31.6194235,15.4410575 L31.9710456,15.391186 C32.7245214,15.2415716 33.1766069,14.4934996 33.0259118,13.795299 C32.8752166,13.0472269 32.1217407,12.5983837 31.4184966,12.7479981 L31.0668745,12.7978695 C29.2585324,13.1968413 26.6967145,13.9449134 25.4911531,14.543371 C25.4911531,14.543371 25.4911531,14.543371 25.4911531,14.543371 C23.5823476,15.5408005 22.2763227,16.338744 22.226091,16.338744 C22.226091,16.338744 19.1619558,18.134117 18.8103338,18.2837314 C17.855931,18.8323175 17.2531503,18.3336028 17.0019917,18.034374 C16.6503696,17.5356593 16.4996744,16.7875872 17.0522234,16.239001 C23.682811,9.80558127 27.0985683,7.91046537 28.8566786,7.46162213 C28.8566786,7.46162213 28.9069104,7.46162213 28.9069104,7.46162213 C30.7152524,7.01277889 33.5784607,6.71355006 36.2909739,6.76342153 C36.441669,6.76342153 36.5421325,6.76342153 36.6928276,6.71355006 L42.1680856,10.6035248 C41.9671587,10.7531392 41.8164635,10.9526251 41.6657684,11.1022395 Z M44.3782815,7.31200772 C44.1773546,7.61123654 43.926196,7.96033684 43.6750373,8.30943714 L38.9030235,4.9181771 L40.1588166,2.97318973 L45.0312939,6.41432124 C44.7801353,6.71355006 44.5792084,7.01277889 44.3782815,7.31200772 Z" id="Shape"></path>
                    </g>
                </g>
            </g>
        </g>
    </g>
</svg>

<svg width="48" height="46" xmlns="http://www.w3.org/2000/svg"><path d="M27.785 25.37c-.301.198-1.155.646-2.16 1.243-.753-1.194-1.757-2.338-3.012-2.538-1.658-.298-3.716.349-5.474.896 0 0-1.707.498-2.31.647-1.255.348-2.41.647-3.365 1.045-1.858.796-5.272 4.03-7.281 6.518-.653.846-1.808 2.488-2.812 3.981-.402.547-.703 1.045-1.005 1.443-.652.896-.401 2.14.503 2.786l6.026 4.23c.452.299 1.004.448 1.556.348.05 0 .1 0 .1-.05a2.32 2.32 0 0 0 1.206-.845l1.958-3.085c2.913.05 6.027-.299 8.035-.797h.05c2.963-.796 7.382-3.98 13.007-9.454 1.456-1.443 1.607-3.682.301-5.374-1.055-1.443-3.113-2.289-5.323-.995zM7.849 42.983L2.978 39.55c.2-.248.401-.597.602-.895.201-.299.452-.647.703-.995l4.771 3.383-1.205 1.94zm23.1-13.186c-6.629 6.419-10.094 8.31-11.801 8.757h-.05c-1.808.448-4.67.747-7.383.697-.15 0-.25 0-.401.05L5.84 35.42c.15-.199.301-.398.452-.547 2.059-2.538 5.072-5.225 6.227-5.722.753-.348 1.858-.597 3.013-.946.653-.149 2.41-.696 2.41-.696 1.407-.448 3.214-.946 4.219-.796.2.05.602.497 1.054 1.194-.803.448-1.557.896-2.008 1.144-.854.448-3.064 1.095-4.872 1.493l-.351.05a1.35 1.35 0 0 0-1.055 1.592c.151.747.904 1.194 1.607 1.045l.352-.05c1.808-.398 4.369-1.144 5.574-1.741 1.908-.995 3.214-1.792 3.264-1.792 0 0 3.063-1.79 3.415-1.94.954-.547 1.557-.05 1.808.249.401.497.552 1.293 0 1.84zM47.141 4.619L41.113.379c-.452-.298-1.004-.448-1.557-.348-.05 0-.1 0-.1.05-.503.15-.905.448-1.206.847L36.291 4.02c-2.913-.05-6.028.3-8.037.798h-.05c-2.964.798-7.384 3.99-13.01 9.476-1.457 1.446-1.608 3.69-.302 5.386 1.105 1.397 3.165 2.244 5.375.948.301-.2 1.155-.649 2.16-1.247.753 1.197 1.758 2.344 3.014 2.543 1.658.3 3.717-.349 5.475-.897 0 0 1.708-.5 2.31-.649 1.257-.349 2.412-.648 3.366-1.047 1.859-.798 5.275-4.04 7.284-6.533.653-.848 1.808-2.494 2.813-3.99.402-.548.703-1.047 1.005-1.446.552-.848.351-2.095-.553-2.743zm-5.475 6.483c-2.06 2.544-5.074 5.237-6.229 5.735-.753.35-1.859.599-3.014.948-.653.15-2.411.698-2.411.698-1.406.45-3.215.948-4.22.798-.2-.05-.602-.499-1.054-1.197.803-.449 1.557-.897 2.009-1.147.854-.449 3.064-1.097 4.872-1.496l.352-.05a1.352 1.352 0 0 0 1.055-1.596c-.15-.748-.904-1.197-1.608-1.047l-.351.05c-1.808.399-4.37 1.147-5.576 1.745-1.909.998-3.215 1.796-3.265 1.796 0 0-3.064 1.795-3.416 1.945-.954.548-1.557.05-1.808-.25-.352-.498-.502-1.246.05-1.795C23.682 9.806 27.1 7.91 28.857 7.462h.05c1.808-.45 4.671-.748 7.384-.699.15 0 .251 0 .402-.05l5.475 3.89c-.2.15-.352.35-.502.5zm2.712-3.79c-.2.3-.452.648-.703.997l-4.772-3.39 1.256-1.946 4.872 3.441c-.25.3-.452.599-.653.898z" fill="#00BCDC"/></svg>
